Sources/FrostedUI/Resources/Icons.xcassets/rotateRight16.imageset/rotate-right-16.svg

<svg width="16" height="16" viewBox="0 0 16 16" fill="none" xmlns="http://www.w3.org/2000/svg" data-fui-icon="true">
  <path
    d="M7.94727 1.75C10.2976 1.75 11.841 2.85175 12.75 4.14941V2.66309C12.7502 2.24905 13.0859 1.91309 13.5 1.91309C13.9141 1.91309 14.2498 2.24905 14.25 2.66309V6.20215C14.2499 6.95997 13.6391 7.58691 12.8711 7.58691H9.35742C8.94333 7.58691 8.60763 7.25096 8.60742 6.83691C8.60742 6.4227 8.94321 6.08691 9.35742 6.08691H12.0811C11.6078 4.75033 10.3464 3.25 7.94727 3.25C5.05355 3.25018 3.25 5.40711 3.25 8C3.25 10.5929 5.05355 12.7498 7.94727 12.75C9.8586 12.75 11.3994 11.7038 12.1436 10.3818C12.3468 10.021 12.8041 9.89356 13.165 10.0967C13.526 10.2999 13.6544 10.7572 13.4512 11.1182C12.4503 12.8961 10.4185 14.25 7.94727 14.25C4.13664 14.2498 1.75 11.33 1.75 8C1.75 4.67003 4.13664 1.75018 7.94727 1.75Z"
    fill="currentColor"
  />
</svg>

<svg xmlns="http://www.w3.org/2000/svg" width="16" height="16" fill="none" data-fui-icon="true" viewBox="0 0 16 16"><path fill="currentColor" d="M7.947 1.75c2.35 0 3.894 1.102 4.803 2.4V2.662a.75.75 0 0 1 1.5 0v3.54c0 .757-.61 1.384-1.379 1.384H9.357a.75.75 0 0 1 0-1.5h2.724C11.608 4.75 10.346 3.25 7.947 3.25 5.054 3.25 3.25 5.407 3.25 8s1.804 4.75 4.697 4.75c1.912 0 3.452-1.046 4.197-2.368a.75.75 0 0 1 1.307.736c-1 1.778-3.033 3.132-5.504 3.132-3.81 0-6.197-2.92-6.197-6.25s2.387-6.25 6.197-6.25"/></svg>
